build/img/icon/ball-icon.svg

<svg width="47" height="47" viewBox="0 0 47 47" fill="none" xmlns="http://www.w3.org/2000/svg">
<mask id="mask0" mask-type="alpha" maskUnits="userSpaceOnUse" x="5" y="5" width="37" height="37">
<path d="M34.733 17.9231C34.733 27.2724 27.1786 34.8462 17.8665 34.8462C8.55436 34.8462 1 27.2724 1 17.9231C1 8.57374 8.55436 1 17.8665 1C27.1786 1 34.733 8.57374 34.733 17.9231Z" transform="matrix(0.919269 0.393631 -0.394792 0.91877 14.1514 0)" fill="#C4C4C4" stroke="black" stroke-width="2"/>
</mask>
<g mask="url(#mask0)">
<path d="M6.084 0.425244C6.43407 0.171554 6.90753 0.171554 7.2576 0.425244L12.4256 4.1704C12.777 4.42504 12.924 4.87725 12.7896 5.28986L10.8167 11.3464C10.6826 11.7581 10.2988 12.0367 9.86583 12.0367H3.47577C3.04282 12.0367 2.65904 11.7581 2.52494 11.3464L0.551993 5.28986C0.417584 4.87725 0.564632 4.42504 0.916017 4.1704L6.084 0.425244Z" transform="matrix(-0.658237 0.753301 -0.752196 -0.658375 39.998 7.01154)" stroke="#F24841" stroke-width="2"/>
<path d="M6.084 0.425244C6.43407 0.171554 6.90753 0.171554 7.2576 0.425244L12.4256 4.1704C12.777 4.42504 12.924 4.87725 12.7896 5.28986L10.8167 11.3464C10.6826 11.7581 10.2988 12.0367 9.86583 12.0367H3.47577C3.04282 12.0367 2.65904 11.7581 2.52494 11.3464L0.551993 5.28986C0.417584 4.87725 0.564632 4.42504 0.916017 4.1704L6.084 0.425244Z" transform="matrix(-0.658237 0.753301 -0.752196 -0.658375 17.4424 31.5502)" stroke="#F24841" stroke-width="2"/>
<path d="M6.084 0.425244C6.43407 0.171554 6.90753 0.171554 7.2576 0.425244L12.4256 4.1704C12.777 4.42504 12.924 4.87725 12.7896 5.28986L10.8167 11.3464C10.6826 11.7581 10.2988 12.0367 9.86583 12.0367H3.47577C3.04282 12.0367 2.65904 11.7581 2.52494 11.3464L0.551993 5.28986C0.417584 4.87725 0.564632 4.42504 0.916017 4.1704L6.084 0.425244Z" transform="matrix(-0.658237 0.753301 -0.752196 -0.658375 37.7432 40.2427)" stroke="#F24841" stroke-width="2"/>
<path d="M6.084 0.425244C6.43407 0.171554 6.90753 0.171554 7.2576 0.425244L12.4256 4.1704C12.777 4.42504 12.924 4.87725 12.7896 5.28986L10.8167 11.3464C10.6826 11.7581 10.2988 12.0367 9.86583 12.0367H3.47577C3.04282 12.0367 2.65904 11.7581 2.52494 11.3464L0.551993 5.28986C0.417584 4.87725 0.564632 4.42504 0.916017 4.1704L6.084 0.425244Z" transform="matrix(-0.658237 0.753301 -0.752196 -0.658375 19.2617 11.8765)" stroke="#F24841" stroke-width="2"/>
<path d="M6.084 0.425244C6.43407 0.171554 6.90753 0.171554 7.2576 0.425244L12.4256 4.1704C12.777 4.42504 12.924 4.87725 12.7896 5.28986L10.8167 11.3464C10.6826 11.7581 10.2988 12.0367 9.86583 12.0367H3.47577C3.04282 12.0367 2.65904 11.7581 2.52494 11.3464L0.551993 5.28986C0.417584 4.87725 0.564632 4.42504 0.916017 4.1704L6.084 0.425244Z" transform="matrix(-0.658237 0.753301 -0.752196 -0.658375 50.6299 25.3083)" stroke="#F24841" stroke-width="2"/>
</g>
<path d="M34.733 17.9231C34.733 27.2724 27.1786 34.8462 17.8665 34.8462C8.55436 34.8462 1 27.2724 1 17.9231C1 8.57374 8.55436 1 17.8665 1C27.1786 1 34.733 8.57374 34.733 17.9231Z" transform="matrix(0.919269 0.393631 -0.394792 0.91877 14.1514 0)" stroke="#2E3237" stroke-width="2"/>
<path d="M6.06273 0.42929C6.41373 0.173466 6.88973 0.173466 7.24073 0.42929L12.3923 4.18395C12.7416 4.43859 12.8878 4.88892 12.7546 5.30021L10.7856 11.3793C10.652 11.7918 10.2678 12.0712 9.83426 12.0712H3.46919C3.03562 12.0712 2.65145 11.7918 2.51785 11.3793L0.548859 5.30021C0.415643 4.88892 0.561821 4.43859 0.9112 4.18395L6.06273 0.42929Z" transform="matrix(0.919269 0.393631 -0.394792 0.91877 20.1611 15.107)" stroke="#F24841" stroke-width="2"/>
<path d="M0 0V4.9478" transform="matrix(0.919269 0.393631 -0.394792 0.91877 28.0703 14.0337)" stroke="#F24841" stroke-width="2"/>
<path d="M0 0L4.45838 0.98956" transform="matrix(0.919269 0.393631 -0.394792 0.91877 14.9268 17.017)" stroke="#F24841" stroke-width="2"/>
<path d="M0 0L4.0368 1.51611" transform="matrix(-0.844793 -0.535093 -0.536426 0.843948 34.6982 25.6317)" stroke="#F24841" stroke-width="2"/>
<path d="M0 3.46346L3.46763 0" transform="matrix(0.919269 0.393631 -0.394792 0.91877 14.9893 25.6554)" stroke="#F24841" stroke-width="2"/>
<path d="M2.97225 2.96868L0 0" transform="matrix(0.919269 0.393631 -0.394792 0.91877 25.2676 30.5949)" stroke="#F24841" stroke-width="2"/>
</svg>

<svg width="47" height="47" fill="none" xmlns="http://www.w3.org/2000/svg"><mask id="a" maskUnits="userSpaceOnUse" x="5" y="5" width="37" height="37"><path d="M34.733 17.923c0 9.35-7.554 16.923-16.866 16.923C8.553 34.846 1 27.272 1 17.923 1 8.573 8.554 1 17.866 1c9.313 0 16.867 7.574 16.867 16.923z" transform="rotate(23.181 7.076 34.5) skewX(-.072)" fill="#C4C4C4" stroke="#000" stroke-width="2"/></mask><g mask="url(#a)" stroke="#F24841" stroke-width="2"><path d="M6.084.425a1 1 0 0 1 1.174 0l5.168 3.745a1 1 0 0 1 .364 1.12l-1.973 6.056a1 1 0 0 1-.951.69h-6.39a1 1 0 0 1-.951-.69L.552 5.29a1 1 0 0 1 .364-1.12L6.084.425z" transform="matrix(-.65824 .7533 -.7522 -.65838 39.998 7.012)"/><path d="M6.084.425a1 1 0 0 1 1.174 0l5.168 3.745a1 1 0 0 1 .364 1.12l-1.973 6.056a1 1 0 0 1-.951.69h-6.39a1 1 0 0 1-.951-.69L.552 5.29a1 1 0 0 1 .364-1.12L6.084.425z" transform="matrix(-.65824 .7533 -.7522 -.65838 17.442 31.55)"/><path d="M6.084.425a1 1 0 0 1 1.174 0l5.168 3.745a1 1 0 0 1 .364 1.12l-1.973 6.056a1 1 0 0 1-.951.69h-6.39a1 1 0 0 1-.951-.69L.552 5.29a1 1 0 0 1 .364-1.12L6.084.425z" transform="matrix(-.65824 .7533 -.7522 -.65838 37.743 40.243)"/><path d="M6.084.425a1 1 0 0 1 1.174 0l5.168 3.745a1 1 0 0 1 .364 1.12l-1.973 6.056a1 1 0 0 1-.951.69h-6.39a1 1 0 0 1-.951-.69L.552 5.29a1 1 0 0 1 .364-1.12L6.084.425z" transform="matrix(-.65824 .7533 -.7522 -.65838 19.262 11.877)"/><path d="M6.084.425a1 1 0 0 1 1.174 0l5.168 3.745a1 1 0 0 1 .364 1.12l-1.973 6.056a1 1 0 0 1-.951.69h-6.39a1 1 0 0 1-.951-.69L.552 5.29a1 1 0 0 1 .364-1.12L6.084.425z" transform="matrix(-.65824 .7533 -.7522 -.65838 50.63 25.308)"/></g><path d="M34.733 17.923c0 9.35-7.554 16.923-16.866 16.923C8.553 34.846 1 27.272 1 17.923 1 8.573 8.554 1 17.866 1c9.313 0 16.867 7.574 16.867 16.923z" transform="rotate(23.181 7.076 34.5) skewX(-.072)" stroke="#2E3237" stroke-width="2"/><path d="M6.063.43a1 1 0 0 1 1.178 0l5.151 3.754a1 1 0 0 1 .363 1.116l-1.97 6.08a1 1 0 0 1-.95.691H3.468a1 1 0 0 1-.951-.692L.548 5.3a1 1 0 0 1 .363-1.116L6.063.429z" transform="rotate(23.181 -26.749 56.704) skewX(-.072)" stroke="#F24841" stroke-width="2"/><path d="M0 0v4.948" transform="rotate(23.181 -20.178 75.45) skewX(-.072)" stroke="#F24841" stroke-width="2"/><path d="M0 0l4.458.99" transform="rotate(23.181 -34.022 44.899) skewX(-.072)" stroke="#F24841" stroke-width="2"/><path d="M0 0l4.037 1.516" transform="matrix(-.8448 -.5351 -.53643 .84395 34.698 25.632)" stroke="#F24841" stroke-width="2"/><path d="M0 3.463L3.468 0" transform="rotate(23.181 -55.05 49.37) skewX(-.072)" stroke="#F24841" stroke-width="2"/><path d="M2.972 2.969L0 0" transform="rotate(23.181 -61.954 76.897) skewX(-.072)" stroke="#F24841" stroke-width="2"/></svg>
